X:6
T:Phoenix
C:Jackie Tolliday-Bailey
M:4/4
L:1/8
K:Bm
f>z e>z d>z c>F | B>c d>e f>e d>c |\
f>z e>z d>z c>F | B>c d>e f4 |
f>z e>z d>z c>f | g>e f>g f>e d>c |\
f>z e>z d>z c>F | B>c d>c B4 ||
(3cdc F>c d>c B>A | (3BcB F>B c>B d>B |\
(3cdc F>c d>c B>A | B>c d>c B4 :|

